**kern	**kern	**kern	**kern
*staff4	*staff3	*staff2	*staff1
=1-	=1-	=1-	=1-
*clefF4	*clefGv2	*clefGv2	*clefG2
*k[]	*k[]	*k[]	*k[]
*met(C|)	*met(C|)	*met(C|)	*met(C|)
*M2/2	*M2/2	*M2/2	*M2/2
0E	0r	0e	0e
=2	=2	=2	=2
1F	0r	1c	1a
1D	.	1f	1a
=3	=3	=3	=3
1.E	1.E	0e	1.g
4D\	2F/	.	4f/
4C/	.	.	4e/
=4	=4	=4	=4
2.BB/	1G	0r	2.d/
4AA/	.	.	4c/
1BB	1G	.	1d
=5	=5	=5	=5
0AA	1A	2r	2c/
.	.	2e\	2cc\
.	2r	2e\	2cc\
.	2A/	2e\	2cc\
=6	=6	=6	=6
0r	2G/	1g	2b\
.	2E/	.	2b\
.	2F/	1f	1a
.	2D/	.	.
=7	=7	=7	=7
!!linebreak:default
0c	0A	1e	1r
.	.	1e	1cc
=8	=8	=8	=8
1G	0r	1d	1b
1A	.	1c	[1a
=9	=9	=9	=9
0E	0r	0B	2a/]
.	.	.	4g/
.	.	.	4f/
.	.	.	1g
=10	=10	=10	=10
0r	0c	0e	1r
.	.	.	1cc
=11	=11	=11	=11
0r	1G	1d	1b
.	1A	1c	[1a
=12	=12	=12	=12
1r	0E	1B	2a/]
.	.	.	4g#/
.	.	.	4f#/
1C	.	1e	1g#
=13	=13	=13	=13
1.F	0r	1.f	2a/
.	.	.	2a/
.	.	.	2a/
2F\	.	2f\	2a/
=14	=14	=14	=14
!!linebreak:default
2C/	0r	2e\	2g/
2C/	.	2e\	2g/
1D	.	1d	1f
=15	=15	=15	=15
2AA/	2r	2c\	0e
2A\	2e\	2c\	.
2A\	2e\	2c\	.
2A\	2e\	2c\	.
=16	=16	=16	=16
2G\	2e\	2B\	0r
2G\	2e\	2B\	.
1F	1d	1A	.
=17	=17	=17	=17
1E	1e	1B	0b
1E	1e	1g	.
=18	=18	=18	=18
1A	1c	1e	1cc
1A	1c	1e	1a
=19	=19	=19	=19
0E	0B	1e	1b
.	.	2r	1ee
.	.	2e\	.
=20	=20	=20	=20
0r	0r	1.f	1.dd
.	.	2e\	2cc\
=21	=21	=21	=21
!!pagebreak:default
1r	1r	2d\	2b\
.	.	2c\	2a/
1E	1e	1B	1g#
=22	=22	=22	=22
1.F	1.d	0A	0a
2E\	2c\	.	.
=23	=23	=23	=23
2D\	2B\	0r	0r
2C/	2A/	.	.
1BB	1G#	.	.
=24	=24	=24	=24
0AA	0A	0r	1r
.	.	.	1e
=25	=25	=25	=25
1r	0G	1e	1g
1E	.	[1g	1g
=26	=26	=26	=26
1G	1r	1g]	0d
1G	1B	1g	.
=27	=27	=27	=27
0D	1d	0f	2r
.	.	.	2dd\
.	1d	.	2dd\
.	.	.	2dd\
=28	=28	=28	=28
!!linebreak:default
0r	0A	2r	0cc
.	.	2a\	.
.	.	2a\	.
.	.	2a\	.
=29	=29	=29	=29
1r	1r	1g	1b
1D	1d	1f	1a
=30	=30	=30	=30
2E\	2B\	0e	0r
2AA/	2c\	.	.
2E\	2B\	.	.
[2C/	[2c\	.	.
=31	=31	=31	=31
2C/]	4c\]	0r	1r
.	4B\	.	.
2D\	1A	.	.
1BB	.	.	1dd
.	2G#/	.	.
=32	=32	=32	=32
0AA	1A	0c	0cc
.	2r	.	.
.	2A/	.	.
=33	=33	=33	=33
0r	2G/	1g	1b
.	2E/	.	.
.	2F/	1f	1a
.	2D/	.	.
=34	=34	=34	=34
2r	2A/	2e\	2r
2F\	2A/	2f\	2a/
2F\	2c\	2f\	2a/
2F\	2c\	2f\	2a/
=35	=35	=35	=35
!!linebreak:default
1C	1c	1e	1g
1D	2.A/	1d	1f
.	4B\	.	.
=36	=36	=36	=36
2AA/	2c\	2c\	2e/
2F\	2A/	2f\	2a/
2F\	2c\	2f\	2a/
2F\	2c\	2f\	2a/
=37	=37	=37	=37
1C	1c	1e	1g
1D	2.A/	1d	1f
.	4B\	.	.
=38	=38	=38	=38
2AA/	2c\	2c\	2e/
2AA/	2A/	2c\	2e/
2E\	2G/	2B\	2g/
2AA/	2A/	2c\	2e/
=39	=39	=39	=39
1E	1G	1B	1g
1AA	1A	1c	2.e/
.	.	.	4f/
=40	=40	=40	=40
0E	0G	0B	0g
==	==	==	==
*-	*-	*-	*-
